packages/ffe-icons/icons/open/300/sm/touchpad_mouse.svg

<svg xmlns="http://www.w3.org/2000/svg" height="20" viewBox="0 -960 960 960" width="20"><path d="M648.242-168Q708-168 750-210.171 792-252.343 792-312v-58.001H504V-312q0 59.657 42.242 101.829Q588.485-168 648.242-168ZM505.615-421.999h116.386v-127.924Q572.693-540.846 541.5-506q-31.193 34.846-35.885 84.001Zm168.384 0h116.386Q785.693-471.154 754.5-506q-31.193-34.846-80.501-43.923v127.924Zm-25.93 305.998q-82.607 0-139.337-56.682Q452.001-229.364 452.001-312v-96q0-82.636 56.662-139.317 56.661-56.682 139.268-56.682t139.337 56.682Q843.999-490.636 843.999-408v96q0 82.636-56.662 139.317-56.661 56.682-139.268 56.682Zm-467.76-96q-27.008 0-45.658-19-18.65-19-18.65-45.308v-407.382q0-26.308 18.65-45.308t45.658-19h637.69q11.05 0 18.525 7.419 7.475 7.418 7.475 18.384 0 10.966-7.475 18.581T817.999-696h-637.69q-5.385 0-8.847 3.462-3.462 3.462-3.462 8.847v407.382q0 5.385 3.462 8.847 3.462 3.462 8.847 3.462h165.616q11.049 0 18.524 7.418 7.475 7.418 7.475 18.384 0 10.966-7.475 18.581-7.475 7.616-18.524 7.616H180.309ZM168-264v-432 432Z"/></svg>

<svg xmlns="http://www.w3.org/2000/svg" height="20" viewBox="0 -960 960 960" width="20"><path d="M648.24-168Q708-168 750-210.17q42-42.17 42-101.83v-58H504v58q0 59.66 42.24 101.83t102 42.17ZM505.62-422H622v-127.92q-49.31 9.07-80.5 43.92-31.19 34.85-35.88 84ZM674-422h116.38q-4.69-49.15-35.88-84T674-549.92V-422Zm-25.93 306q-82.61 0-139.34-56.68Q452-229.36 452-312v-96q0-82.64 56.66-139.32Q565.32-604 647.93-604q82.61 0 139.34 56.68Q844-490.64 844-408v96q0 82.64-56.66 139.32Q730.68-116 648.07-116Zm-467.76-96q-27.01 0-45.66-19Q116-250 116-276.31v-407.38Q116-710 134.65-729q18.65-19 45.66-19H818q11.05 0 18.52 7.42 7.48 7.42 7.48 18.38 0 10.97-7.48 18.58Q829.05-696 818-696H180.31q-5.39 0-8.85 3.46t-3.46 8.85v407.38q0 5.39 3.46 8.85t8.85 3.46h165.61q11.05 0 18.53 7.42 7.47 7.42 7.47 18.38 0 10.97-7.47 18.58-7.48 7.62-18.53 7.62H180.31ZM168-264v-432 432Z"/></svg>
